X:1
T:Title
%%score ( 1 2 ) ( 3 4 )
L:1/8
Q:1/4=90
M:4/4
K:D
V:1 treble nm="Grand Piano, Soprano"
V:2 treble 
V:3 bass nm="Choir Pad, What a Gathering That Will Be"
V:4 bass 
V:1
 D[DF][FA][FA] [GB][FA][DF][DF] | D[FA][GB][GB] [GB][Gd] [FA]2 | %2
w: By~John~Henry~Kurzenknabe,~1879 * * * * * * *||
 [DF][EG][FA][FA] [FA][FA][GB][FA] | [Fd][DF] [CE]6 | [DF][EG][FA][FA] [GB][FA][DF][DF] | %5
w: |||
 D[FA][GB][GB] [GB][Gc] [Gd]2 | [Gc][Gd][Ge][Gd] [Gc][GB][GA][GA] | [GB][Gc] [Fd]6 | z2 A4 d2- | %9
w: ||||
 d2 d4 B2 | [GB][GB][FA][FA] [FA][FA][GB][FA] | [Fd][DF] C2 CC C2 | z2 .F2 z2 .A2 | z2 d4 B2 | %14
w: |||||
 [Gc][Gd][Ge][Gd] [Gc][GB][GA][GA] | [GB][Gc] [Fd]6- | [Fd]2 z2 z4 |] %17
w: |||
V:2
 x8 | x8 | x8 | x8 | x8 | x8 | x8 | x8 | [DF][EG]FF FFFF | FFGG GGGG | x8 | z2 E6 | %12
 [DF][EG]A-[FA-] [FA-][FA]f-[Af-] | [Af-][Af]GG GGGG | x8 | x8 | x8 |] %17
V:3
 [D,F,][D,A,][D,D][D,D] [D,D][D,D][D,A,][D,A,] | [D,F,][D,D][G,D][G,D] [G,D][G,B,] [D,D]2 | %2
 [D,A,][D,A,][D,D][D,D] [D,D][D,D][D,D][D,D] | z4 z2 A,2 | %4
 [F,A,][E,A,][D,D][D,D] [D,D][D,D][D,A,][D,A,] | [D,F,][D,D][G,D][G,D] [G,D][G,D] [G,B,]2 | %6
 [G,B,][G,B,][G,B,][G,B,] [G,C][G,D][A,C][A,C] | [A,E][A,E] [D,D]6 | %8
 [D,D][D,D][D,D][D,D] [D,D][D,D][D,A,][D,A,] | [D,A,][D,A,][G,B,][G,B,] [G,B,][G,B,][G,D][G,D] | %10
 [G,D][G,D][D,D][D,D] [D,D][D,D][D,D][D,D] | [D,A,][D,A,] A,2 A,A,A,G, | %12
 [F,A,][E,A,][D,D][D,D] [D,D][D,D][D,D][D,D] | [D,D][D,D][G,B,][G,B,] [G,B,][G,B,][G,D][G,D] | %14
 [G,B,][G,B,][G,B,][G,B,] [G,C][G,D][A,C][A,C] | [A,E][A,E] [D,D]6- | [D,D]2 z2 z4 |] %17
V:4
 x8 | x8 | x8 | [D,A,][D,A,] [A,,A,]2 A,>A, z G, | x8 | x8 | x8 | x8 | x8 | x8 | x8 | x8 | x8 | %13
 x8 | x8 | x8 | x8 |] %17

